Papirus/24x24/apps/zen-browser.svg

<svg width="24" height="24" version="1.1" xmlns="http://www.w3.org/2000/svg">
 <path x="0" y="0" width="16" height="16" d="m4.5 2.4999998h15a2.5 2.5 0 0 1 2.5 2.5v15a2.5 2.5 0 0 1-2.5 2.5h-15a2.5 2.5 0 0 1-2.5-2.5v-15a2.5 2.5 0 0 1 2.5-2.5z" style="opacity:.2"/>
 <path x="0" y="0" width="16" height="16" d="m4.5 1.9999998h15a2.5 2.5 0 0 1 2.5 2.5v15a2.5 2.5 0 0 1-2.5 2.5h-15a2.5 2.5 0 0 1-2.5-2.5v-15a2.5 2.5 0 0 1 2.5-2.5z" style="fill:#e3e1d4"/>
 <path d="m12 3.5a9 9 0 0 0-9 9 9 9 0 0 0 9 9 9 9 0 0 0 9-9 9 9 0 0 0-9-9zm0 2a7 7 0 0 1 7 7 7 7 0 0 1-7 7 7 7 0 0 1-7-7 7 7 0 0 1 7-7z" style="opacity:.2"/>
 <path d="m12 6.5a6 6 0 0 0-6 6 6 6 0 0 0 6 6 6 6 0 0 0 6-6 6 6 0 0 0-6-6zm0 1.5a4.5 4.5 0 0 1 4.5 4.5 4.5 4.5 0 0 1-4.5 4.5 4.5 4.5 0 0 1-4.5-4.5 4.5 4.5 0 0 1 4.5-4.5z" style="opacity:.2"/>
 <path d="m12 9a3.5 3.5 0 0 0-3.5 3.5 3.5 3.5 0 0 0 3.5 3.5 3.5 3.5 0 0 0 3.5-3.5 3.5 3.5 0 0 0-3.5-3.5zm0 1a2.5 2.5 0 0 1 2.5 2.5 2.5 2.5 0 0 1-2.5 2.5 2.5 2.5 0 0 1-2.5-2.5 2.5 2.5 0 0 1 2.5-2.5z" style="opacity:.2"/>
 <path d="m12 3a9 9 0 0 0-9 9 9 9 0 0 0 9 9 9 9 0 0 0 9-9 9 9 0 0 0-9-9zm0 2a7 7 0 0 1 7 7 7 7 0 0 1-7 7 7 7 0 0 1-7-7 7 7 0 0 1 7-7z" style="fill:#f76f53"/>
 <path d="m12 6a6 6 0 0 0-6 6 6 6 0 0 0 6 6 6 6 0 0 0 6-6 6 6 0 0 0-6-6zm0 1.5a4.5 4.5 0 0 1 4.5 4.5 4.5 4.5 0 0 1-4.5 4.5 4.5 4.5 0 0 1-4.5-4.5 4.5 4.5 0 0 1 4.5-4.5z" style="fill:#f76f53"/>
 <path d="m12 8.5a3.5 3.5 0 0 0-3.5 3.5 3.5 3.5 0 0 0 3.5 3.5 3.5 3.5 0 0 0 3.5-3.5 3.5 3.5 0 0 0-3.5-3.5zm0 1a2.5 2.5 0 0 1 2.5 2.5 2.5 2.5 0 0 1-2.5 2.5 2.5 2.5 0 0 1-2.5-2.5 2.5 2.5 0 0 1 2.5-2.5z" style="fill:#f76f53"/>
 <path d="m12 3c-4.9705627 0-9 4.0294373-9 9 0.0047 0.08341 0.010559 0.166752 0.017578 0.25 0.1352087-4.8658474 4.1147024-8.7423709 8.982422-8.75 4.827572 0.00126 8.794324 3.8111705 8.990234 8.634766 0.003593-0.044897 0.006848-0.08982 0.009766-0.134766 0-4.9705627-4.029437-9-9-9zm6.988 9.138672c-0.075432 3.807178-3.180079 6.8557-6.988 6.861328-3.7628567-0.008099-6.8456207-2.989535-6.98-6.75-8e-3 0.08321-0.014983 0.166557-0.02 0.25 0 3.865993 3.1340068 7 7 7 3.865993 0 7-3.134007 7-7-7.95e-4 -0.120523-5e-3 -0.241006-0.012-0.361328z" style="fill:#ffffff;opacity:.2"/>
 <path d="m12 6c-3.3137085 0-6 2.6862915-6 6 0.00412 0.08345 0.00998 0.166798 0.017578 0.25 0.1338134-3.2088933 2.7707467-5.7433796 5.982422-5.75 3.180168 0.00105 5.807119 2.4831989 5.988281 5.658203 0.004603-0.05268 0.00851-0.105419 0.011719-0.158203 0-3.3137085-2.686292-6-6-6zm4.486 6.173828c-0.09323 2.411857-2.072348 4.32064-4.486 4.326172-2.3832931-0.006664-4.3476036-1.870378-4.48-4.25-0.00883 0.08314-0.015813 0.166501-0.02 0.25 0 2.485281 2.0147186 4.5 4.5 4.5 2.485281 0 4.5-2.014719 4.5-4.5-6.11e-4 -0.108854-0.0055-0.217649-0.014-0.326172z" style="fill:#ffffff;opacity:.2"/>
 <path d="m12 8.5c-1.932997 0-3.5 1.567003-3.5 3.5 0.00287 0.08352 0.00874 0.166903 0.017578 0.25 0.1308995-1.827989 1.649758-3.2454765 3.482422-3.25 1.816132 3.756e-4 3.330254 1.389805 3.486328 3.199219 0.006451-0.066263 0.01101-0.132696 0.013672-0.199219 0-1.932997-1.567003-3.5-3.5-3.5zm-2.479 3.75c-0.011342 0.08292-0.018028 0.16636-0.021 0.25 0 1.380712 1.119288 2.5 2.5 2.5s2.5-1.119288 2.5-2.5c-1.93e-4 -0.09727-0.0065-0.194435-0.018-0.291016-0.108355 1.291774-1.185698 2.286438-2.482 2.291016-1.280473-0.004586-2.3509601-0.975937-2.479-2.25z" style="fill:#ffffff;opacity:.2"/>
</svg>

<svg xmlns="http://www.w3.org/2000/svg" width="24" height="24" version="1.1">
 <path style="opacity:0.2" d="m 4.5 2.5 h 15 a 2.5 2.5 0 0 1 2.5 2.5 v 15 a 2.5 2.5 0 0 1-2.5 2.5 h -15 a 2.5 2.5 0 0 1-2.5-2.5 v -15 a 2.5 2.5 0 0 1 2.5-2.5 z"/>
 <path style="fill:#e3e1d4" d="m 4.5 2 h 15 a 2.5 2.5 0 0 1 2.5 2.5 v 15 a 2.5 2.5 0 0 1-2.5 2.5 h -15 a 2.5 2.5 0 0 1-2.5-2.5 v -15 a 2.5 2.5 0 0 1 2.5-2.5 z"/>
 <path style="opacity:0.1" d="M 12,9 A 3.5,3.5 0 0 0 8.5,12.5 3.5,3.5 0 0 0 12,16 3.5,3.5 0 0 0 15.5,12.5 3.5,3.5 0 0 0 12,9 Z M 12,10 A 2.5,2.5 0 0 1 14.5,12.5 2.5,2.5 0 0 1 12,15 2.5,2.5 0 0 1 9.5,12.5 2.5,2.5 0 0 1 12,10 Z M 12,6.5 A 6,6 0 0 0 6,12.5 6,6 0 0 0 12,18.5 6,6 0 0 0 18,12.5 6,6 0 0 0 12,6.5 Z M 12,8 A 4.5,4.5 0 0 1 16.5,12.5 4.5,4.5 0 0 1 12,17 4.5,4.5 0 0 1 7.5,12.5 4.5,4.5 0 0 1 12,8 Z M 12,3.5 A 9,9 0 0 0 3,12.5 9,9 0 0 0 12,21.5 9,9 0 0 0 21,12.5 9,9 0 0 0 12,3.5 Z M 12,5.5 A 7,7 0 0 1 19,12.5 7,7 0 0 1 12,19.5 7,7 0 0 1 5,12.5 7,7 0 0 1 12,5.5 Z"/>
 <path style="fill:#f76f53" d="M 12,8.5 A 3.5,3.5 0 0 0 8.5,12 3.5,3.5 0 0 0 12,15.5 3.5,3.5 0 0 0 15.5,12 3.5,3.5 0 0 0 12,8.5 Z M 12,9.5 A 2.5,2.5 0 0 1 14.5,12 2.5,2.5 0 0 1 12,14.5 2.5,2.5 0 0 1 9.5,12 2.5,2.5 0 0 1 12,9.5 Z M 12,6 A 6,6 0 0 0 6,12 6,6 0 0 0 12,18 6,6 0 0 0 18,12 6,6 0 0 0 12,6 Z M 12,7.5 A 4.5,4.5 0 0 1 16.5,12 4.5,4.5 0 0 1 12,16.5 4.5,4.5 0 0 1 7.5,12 4.5,4.5 0 0 1 12,7.5 Z M 12,3 A 9,9 0 0 0 3,12 9,9 0 0 0 12,21 9,9 0 0 0 21,12 9,9 0 0 0 12,3 Z M 12,5 A 7,7 0 0 1 19,12 7,7 0 0 1 12,19 7,7 0 0 1 5,12 7,7 0 0 1 12,5 Z"/>
 <path style="fill:#ffffff;opacity:0.2" d="M 12,8.5 C 10.067,8.5 8.5,10.067 8.5,12 8.5029,12.084 8.5087,12.167 8.5176,12.25 8.6485,10.422 10.167,9.0045 12,9 13.816,9.0004 15.33,10.39 15.486,12.199 15.493,12.133 15.497,12.067 15.5,12 15.5,10.067 13.933,8.5 12,8.5 Z M 9.521,12.25 C 9.5097,12.333 9.503,12.416 9.5,12.5 9.5,13.881 10.619,15 12,15 13.381,15 14.5,13.881 14.5,12.5 14.5,12.403 14.493,12.306 14.482,12.209 14.374,13.501 13.296,14.495 12,14.5 10.72,14.495 9.649,13.524 9.521,12.25 Z M 12,6 C 8.6863,6 6,8.6863 6,12 6.0041,12.083 6.01,12.167 6.0176,12.25 6.1514,9.0411 8.7883,6.5066 12,6.5 15.18,6.5011 17.807,8.9832 17.988,12.158 17.993,12.106 17.997,12.053 18,12 18,8.6863 15.314,6 12,6 Z M 16.486,12.174 C 16.393,14.586 14.414,16.494 12,16.5 9.6167,16.493 7.6524,14.63 7.52,12.25 7.5112,12.333 7.5042,12.417 7.5,12.5 7.5,14.985 9.5147,17 12,17 14.485,17 16.5,14.985 16.5,12.5 16.499,12.391 16.494,12.282 16.486,12.174 Z M 12,3 C 7.0294,3 3,7.0294 3,12 3.0047,12.083 3.0106,12.167 3.0176,12.25 3.1528,7.3842 7.1323,3.5076 12,3.5 16.828,3.5013 20.794,7.3112 20.99,12.135 20.994,12.09 20.997,12.045 21,12 21,7.0294 16.971,3 12,3 Z M 18.988,12.139 C 18.913,15.946 15.808,18.994 12,19 8.2371,18.992 5.1544,16.01 5.02,12.25 5.012,12.333 5.005,12.417 5,12.5 5,16.366 8.134,19.5 12,19.5 15.866,19.5 19,16.366 19,12.5 18.999,12.379 18.995,12.259 18.988,12.139 Z"/>
 <path style="fill:#ffffff;opacity:0.2" d="M 4.5 2 A 2.5 2.5 0 0 0 2 4.5 L 2 5 A 2.5 2.5 0 0 1 4.5 2.5 L 19.5 2.5 A 2.5 2.5 0 0 1 22 5 L 22 4.5 A 2.5 2.5 0 0 0 19.5 2 L 4.5 2 z"/>
</svg>
